X: 21169
T: Kathleen's Favourite
R: jig
M: 6/8
K: Fmajor
~F3 AFA|GAG FAc|~f3 cAF|AG^F GAG|
FAc fef|afd cAF|CDF GcB|1 AFE FCD:|2 AFE FAc||
~f3 gfg|afd cAF|CDF AGF|AG^F GAc|
~f3 gfg|afd cAF|CDF GcB|AFE F2 e|
~f3 gfg|afd cAF|CDF AGF|AG^F GAG|
FAc Bcd|ceg f2 g|afd cAG|AFE F2 C||

